X:1
T:Title
%%score { ( 1 3 ) | ( 2 4 5 ) }
L:1/8
M:3/4
K:Eb
V:1 treble nm="Grand Piano"
V:3 treble 
V:2 bass 
V:4 bass 
V:5 bass 
V:1
 z2 z2[Q:1/4=94] E>G | B3 G [EG]>[DF] | E4 (3E-[EG][EGB] | [EAc]3 [EAc] (3[ce][Bd][Ac] | %4
[M:2/4] [GB]4 |[M:1/4] E>G |[M:3/4] B3 G [EG]>[DF] | E4 G>G | F3 B d>c |[M:2/4] [B,DB]4 | %10
[M:1/4] (3BBB |[M:3/4] (3[EA-c-][EA-c-][EA-c-] [Ac]c (3[ce]dc | %12
 (3[EG-B-][EG-B-][EG-B-] [GB]2 (3GAB | (3[B,F-A-][B,F-A-][B,F-A-] [FA]A (3[Ac]BA | %14
 (3[B,E-G-][B,E-G-][B,E-G-] [EG]2 (3EGA | (3[EG-B-][EG-B-][EG-B-] [GB]B (3[GB]ed | %16
 (3[EA-c-][EA-c-][EA-c-] [Ac]2 (3ABc | %17
 [GB]2 (3[GB][B,EG][G,E] [A,DF]>[B,EG][Q:1/4=91][Q:1/4=88][Q:1/4=85][Q:1/4=82][Q:1/4=79][Q:1/4=76][Q:1/4=73] | %18
[M:5/8] [A,DF]2 [G,E]3 |] %19
V:2
 z2 z2 [E,G,]>[E,B,E] | [E,G,E]3 [E,B,E] [B,,B,]>[B,,A,] | [E,G,]4 (3[E,-G,][E,B,]E, | %3
 A,3 A, (3:2:2[A,E]2 [A,E] |[M:2/4] [E,E]4 |[M:1/4] [E,G,]>[E,B,E] | %6
[M:3/4] [E,G,E]3 [E,B,E] [B,,B,]>[B,,A,] | [E,G,]4 [E,B,E]>[E,B,E] | %8
 [F,B,D]3 [F,B,D] [F,B,F]>[F,=A,E] |[M:2/4] B,,4 |[M:1/4][K:treble] (3GGG | %11
[M:3/4] (3A,A,A, z A (3z BA | (3E,E,E, E,2 (3E[K:treble]FG | (3B,,B,,B,, z F (3z[K:treble] GF | %14
 (3E,E,E, E,2 (3z EF | (3E,E,E, z[K:treble] G (3z GB | (3A,A,A, A,2 (3[A,E][A,EA][A,EA] | %17
 [E,E]2 (3[E,E]E,E, B,,>B,, |[M:5/8] B,,2 E,3 |] %19
V:3
 x6 | x6 | x6 | x6 |[M:2/4] x4 |[M:1/4] x2 |[M:3/4] x6 | x6 | x6 |[M:2/4] x4 |[M:1/4] x2 | %11
[M:3/4] z2 E2 z2 | z2 E2 z2 | z2 B,2 z2 | z2 B,2 z2 | z2 E2 z2 | z2 E2 z2 | x6 |[M:5/8] x5 |] %19
V:4
 x6 | x6 | x6 | x6 |[M:2/4] x4 |[M:1/4] x2 |[M:3/4] x6 | x6 | x6 |[M:2/4] x4 | %10
[M:1/4][K:treble] x2 |[M:3/4] z2 A,2 E2 | x14/3[K:treble] x4/3 | z2 B,,2 B,2[K:treble] | x6 | %15
 z2 E,2[K:treble] E2 | x6 | x6 |[M:5/8] x5 |] %19
V:5
 x6 | x6 | x6 | x6 |[M:2/4] x4 |[M:1/4] x2 |[M:3/4] x6 | x6 | x6 |[M:2/4] x4 | %10
[M:1/4][K:treble] x2 |[M:3/4] z2 z2 A,2 | x14/3[K:treble] x4/3 | z2 z2 B,,2[K:treble] | x6 | %15
 z2 z2[K:treble] E,2 | x6 | x6 |[M:5/8] x5 |] %19

